Yaru++/emotes/16/face-monkey.svg

<?xml version="1.0" encoding="UTF-8" standalone="no"?>
<svg
   xmlns:dc="http://purl.org/dc/elements/1.1/"
   xmlns:cc="http://creativecommons.org/ns#"
   xmlns:rdf="http://www.w3.org/1999/02/22-rdf-syntax-ns#"
   xmlns:svg="http://www.w3.org/2000/svg"
   xmlns="http://www.w3.org/2000/svg"
   xmlns:sodipodi="http://sodipodi.sourceforge.net/DTD/sodipodi-0.dtd"
   xmlns:inkscape="http://www.inkscape.org/namespaces/inkscape"
   height="16"
   width="16"
   version="1.1"
   id="svg8"
   sodipodi:docname="face-monkey.svg"
   inkscape:version="0.92.4 (5da689c313, 2019-01-14)">
  <metadata
     id="metadata14">
    <rdf:RDF>
      <cc:Work
         rdf:about="">
        <dc:format>image/svg+xml</dc:format>
        <dc:type
           rdf:resource="http://purl.org/dc/dcmitype/StillImage" />
      </cc:Work>
    </rdf:RDF>
  </metadata>
  <defs
     id="defs12" />
  <sodipodi:namedview
     pagecolor="#ffffff"
     bordercolor="#666666"
     borderopacity="1"
     objecttolerance="10"
     gridtolerance="10"
     guidetolerance="10"
     inkscape:pageopacity="0"
     inkscape:pageshadow="2"
     inkscape:window-width="1920"
     inkscape:window-height="1016"
     id="namedview10"
     showgrid="false"
     inkscape:zoom="14.75"
     inkscape:cx="-4.8813559"
     inkscape:cy="8"
     inkscape:window-x="0"
     inkscape:window-y="27"
     inkscape:window-maximized="1"
     inkscape:current-layer="svg8" />
  <g
     fill="#474747"
     id="g6">
    <path
       d="m7.844.031c-1.227.734-1.064 1.633-.906 2.031-1.808.269-3.55 1.312-4.125 3.188-.284-.212-.588-.344-.938-.344-1.034 0-1.875 1.084-1.875 2.375 0 1.293.841 2.344 1.875 2.344.467 0 .886-.212 1.219-.563 2.719-1.273 7.092-1.466 9.875.032.32.322.71.531 1.156.531 1.034 0 1.875-1.051 1.875-2.344 0-1.292-.841-2.375-1.875-2.375-.428 0-.811.193-1.125.5-.507-1.702-1.84-2.91-3.812-3.281-.17-.639-.285-1.916 1.625-1.781-2.17-.793-2.72 1.625-2.72 1.625-.265-.118-.965-.639-.25-1.938zm-1.375 5.032c.38 0 .719.646.719 1.468 0 .823-.34 1.5-.72 1.5s-.655-.677-.655-1.5c0-.822.276-1.468.656-1.468zm3 0c.38 0 .719.646.719 1.468 0 .823-.34 1.5-.72 1.5s-.655-.677-.655-1.5c0-.822.276-1.468.656-1.468zm-7.469.905c.256 0 .474.15.656.343a6.09 6.09 0 0 0 .125 1.75c-.191.294-.452.5-.781.5-.572 0-1.031-.566-1.031-1.28 0-.715.46-1.313 1.031-1.313zm12.031 0c.572 0 1.063.597 1.063 1.312s-.49 1.282-1.063 1.282c-.372 0-.659-.262-.843-.626.055-.48.036-.935 0-1.375.187-.35.484-.593.843-.593z"
       id="path2"
       style="fill:#9c2c07;fill-opacity:1" />
    <path
       d="m7.969 8.969c-3.88 0-7.031 1.567-7.031 3.5s3.15 3.5 7.03 3.5 7.032-1.567 7.032-3.5-3.151-3.5-7.031-3.5zm-4.969 2.061s.367 2.031 4.969 2.031c4.386 0 5.094-2 5.094-2s-.04 2.979-5.094 2.939c-5.149-.04-4.969-2.969-4.969-2.969z"
       id="path4"
       style="fill:#eab305;fill-opacity:1" />
  </g>
  <g
     id="g833"
     transform="translate(-26.644068,0.06779661)"
     style="fill:#474747">
    <path
       style="fill:#030100;fill-opacity:1;opacity:0.2"
       d="m 34.488318,-0.00529632 c -0.101223,0.0605525 -0.178629,0.1231437 -0.261719,0.1855469 -0.04913,0.2235185 -0.05185,0.4127417 -0.01758,0.5703125 0.03883,-0.2173802 0.118808,-0.4642863 0.279297,-0.7558594 z m 2.230469,0.1542969 c -0.313572,-0.0137654 -0.567657,0.0668249 -0.794922,0.1777343 -0.16758,0.2665444 -0.185509,0.5761679 -0.152344,0.86718762 0.09741,-0.51272742 0.502525,-0.97033552 1.685547,-0.88671882 -0.27125,-0.099125 -0.5156,-0.1484277 -0.738281,-0.1582031 z M 33.503943,1.2173599 c -0.02166,0.115553 -0.02907,0.2253728 -0.02344,0.328125 0.03414,-0.00564 0.06737,-0.016396 0.101562,-0.021484 -0.03179,-0.080079 -0.05731,-0.1915332 -0.07813,-0.3066407 z m -0.390625,3.3085938 c -0.38,0 -0.65625,0.64675 -0.65625,1.46875 0,0.089077 0.01523,0.1669705 0.02148,0.2519531 0.05129,-0.6949734 0.29567,-1.2207031 0.634765,-1.2207031 0.339099,0 0.631362,0.5257183 0.69336,1.2207031 0.0076,-0.084974 0.02539,-0.1628859 0.02539,-0.2519531 0,-0.822 -0.33875,-1.46875 -0.71875,-1.46875 z m 3,0 c -0.38,0 -0.65625,0.64675 -0.65625,1.46875 0,0.089077 0.01523,0.1669705 0.02148,0.2519531 0.05129,-0.6949734 0.29567,-1.2207031 0.634765,-1.2207031 0.339099,0 0.631362,0.5257183 0.69336,1.2207031 0.0076,-0.084974 0.02539,-0.1628859 0.02539,-0.2519531 0,-0.822 -0.33875,-1.46875 -0.71875,-1.46875 z m -7.46875,0.9042969 c -0.571,0 -1.03125,0.5994531 -1.03125,1.3144531 0,0.088235 0.02764,0.1651397 0.04102,0.2480469 0.09532,-0.5946577 0.490074,-1.0625 0.990234,-1.0625 0.25094,0 0.464723,0.1464777 0.644531,0.3339843 a 6.09,6.09 0 0 1 0.01172,-0.4902343 c -0.182,-0.1929999 -0.40025,-0.34375 -0.65625,-0.34375 z m 12.03125,0 c -0.359,0 -0.65675,0.2437501 -0.84375,0.59375 0.01236,0.1511183 0.01739,0.3078284 0.02344,0.4628906 0.187922,-0.3287449 0.474952,-0.5566406 0.820312,-0.5566406 0.501351,0 0.920753,0.4676705 1.021485,1.0625 0.01438,-0.083568 0.04102,-0.1610199 0.04102,-0.25 0,-0.7149999 -0.4905,-1.3125 -1.0625,-1.3125 z M 29.294959,6.4966568 a 6.09,6.09 0 0 0 0.06055,1.1191407 c 0.02333,-0.030755 0.04877,-0.058633 0.07031,-0.091797 a 6.09,6.09 0 0 1 -0.13086,-1.0273437 z m 10.558594,0.4550781 c -0.0043,0.1483151 -0.0039,0.2941899 -0.02148,0.4472657 0.0068,0.013425 0.01637,0.023972 0.02344,0.037109 0.0044,-0.1638005 0.0049,-0.3255323 -0.002,-0.484375 z m -13.1875,0.042969 c -0.0072,0.083314 -0.02149,0.1646216 -0.02149,0.25 0,1.293 0.841,2.34375 1.875,2.34375 0.467,0 0.88575,-0.213453 1.21875,-0.5644531 2.719,-1.2729999 7.092,-1.4647967 9.875,0.033203 0.32,0.322 0.71025,0.53125 1.15625,0.53125 1.034,0 1.875,-1.05075 1.875,-2.34375 0,-0.085419 -0.01237,-0.1666608 -0.01953,-0.25 -0.101206,1.1743003 -0.88983,2.09375 -1.855469,2.09375 -0.446,0 -0.83625,-0.20925 -1.15625,-0.53125 -0.889633,-0.4788613 -1.94802,-0.7684842 -3.05664,-0.921875 -0.125369,0.213562 -0.277601,0.359375 -0.44336,0.359375 -0.192724,0 -0.357761,-0.176072 -0.474609,-0.4550781 -0.676269,-0.042492 -1.357986,-0.035069 -2.03125,0.023437 -0.131567,0.2646089 -0.307143,0.4316406 -0.494141,0.4316406 -0.154357,0 -0.28402,-0.1324909 -0.392578,-0.3203125 -1.088689,0.1670249 -2.122138,0.446836 -2.982422,0.8496094 -0.333,0.3510001 -0.75175,0.5644531 -1.21875,0.5644531 -0.965618,0 -1.752282,-0.9194856 -1.853515,-2.09375 z m 2.978515,3.5000001 c 0,0 -0.01588,0.455245 0.261719,1.005859 0.432457,0.600771 1.587988,1.523437 4.707031,1.523437 3.106665,0 4.352755,-0.994712 4.824219,-1.580078 0.261339,-0.510503 0.269531,-0.919921 0.269531,-0.919921 0,0 -0.70775,1.999999 -5.09375,1.999999 -4.595936,0 -4.967778,-2.023956 -4.96875,-2.029296 z m -2.037109,1.687499 c -0.01184,0.08299 -0.02539,0.165517 -0.02539,0.25 0,1.933 3.15125,3.5 7.03125,3.5 3.88,0 7.03125,-1.567 7.03125,-3.5 0,-0.08453 -0.01354,-0.166971 -0.02539,-0.25 -0.259123,1.815665 -3.29553,3.25 -7.00586,3.25 -3.710422,0 -6.746868,-1.434271 -7.00586,-3.25 z"
       id="path838"
       inkscape:connector-curvature="0" />
    <path
       style="fill:#ffffff;fill-opacity:1;opacity:0.3"
       d="m 34.488318,-0.00529632 c -0.980124,0.586317 -1.067017,1.26566732 -0.984375,1.72265622 0.06135,-0.3273305 0.263293,-0.6921129 0.722656,-1.03710932 0.04431,-0.201588 0.117666,-0.4238329 0.261719,-0.6855469 z m 2.230469,0.1542969 C 35.160022,0.08057278 34.738318,1.9322037 34.738318,1.9322037 34.585907,1.8643378 34.297261,1.6562385 34.209021,1.2505631 c -0.134157,0.7510795 0.323779,1.0901268 0.529297,1.1816406 0,0 0.283045,-1.1621761 1.183594,-1.60351562 0.2116,-0.3395903 0.650616,-0.5840043 1.535156,-0.5214844 -0.27125,-0.099125 -0.5156,-0.1484277 -0.738281,-0.1582031 z M 35.771521,1.6958756 c -0.05985,0.3150758 -0.0042,0.649364 0.06055,0.8925781 1.972,0.371 3.3055,1.57925 3.8125,3.28125 0.314,-0.307 0.697,-0.5 1.125,-0.5 0.965639,0 1.754263,0.947795 1.855469,2.125 0.0072,-0.083134 0.01953,-0.164515 0.01953,-0.25 0,-1.292 -0.841,-2.375 -1.875,-2.375 -0.428,0 -0.811,0.193 -1.125,0.5 -0.507,-1.702 -1.8405,-2.91025 -3.8125,-3.28125 C 35.8026,1.9776893 35.78743,1.8343151 35.771521,1.6958756 Z m -2.291015,0.3496093 c -1.770946,0.2927246 -3.45932,1.3274722 -4.023438,3.1679688 -0.284,-0.212 -0.5875,-0.34375 -0.9375,-0.34375 -1.034,0 -1.875,1.084 -1.875,2.375 0,0.085511 0.01432,0.1668422 0.02149,0.25 0.101233,-1.1764709 0.887897,-2.125 1.853515,-2.125 0.35,0 0.6535,0.13175 0.9375,0.34375 0.575,-1.8760001 2.317,-2.920453 4.125,-3.1894531 -0.04747,-0.1195655 -0.09105,-0.286792 -0.101562,-0.4785157 z m -1.001953,4.7011719 c -0.0062,0.083834 -0.02148,0.1595635 -0.02148,0.2480469 0,0.4883668 0.105169,0.9050917 0.263672,1.1796875 0.293372,-0.045009 0.586233,-0.085216 0.886719,-0.1113281 0.135776,-0.2731018 0.224609,-0.6503843 0.224609,-1.0683594 0,-0.088475 -0.01791,-0.16422 -0.02539,-0.2480469 -0.06228,0.7002057 -0.354484,1.2480469 -0.69336,1.2480469 -0.338871,0 -0.58324,-0.5478542 -0.634765,-1.2480469 z m 3,0 c -0.0062,0.083834 -0.02148,0.1595635 -0.02148,0.2480469 0,0.4055992 0.0681,0.7738044 0.181641,1.0449219 0.31034,0.0195 0.613944,0.055584 0.917969,0.097656 0.162396,-0.2760158 0.27539,-0.6779607 0.27539,-1.1425781 0,-0.088475 -0.01791,-0.16422 -0.02539,-0.2480469 -0.06228,0.7002057 -0.354484,1.2480469 -0.69336,1.2480469 -0.338871,0 -0.58324,-0.5478542 -0.634765,-1.2480469 z m -6.189454,0.017578 a 6.09,6.09 0 0 0 0.0059,0.2324219 6.09,6.09 0 0 1 0.0059,-0.2226562 c -0.0036,-0.00381 -0.0081,-0.00598 -0.01172,-0.00977 z m 10.566407,0.2226564 c -0.0074,0.012983 -0.01633,0.023812 -0.02344,0.037109 0.01143,0.139638 0.01531,0.2847552 0.02148,0.4277343 0.0046,-0.1569882 0.0079,-0.3124425 0.002,-0.4648437 z m 1.841797,0.5058594 c -0.101167,0.5879429 -0.519793,1.03125 -1.021485,1.03125 -0.358279,0 -0.635753,-0.2448404 -0.820312,-0.5878907 -0.0041,0.1533557 -0.0053,0.3044467 -0.02344,0.4628907 0.184,0.3640001 0.47175,0.625 0.84375,0.625 0.573,0 1.0625,-0.56625 1.0625,-1.28125 0,-0.088312 -0.02682,-0.1661777 -0.04102,-0.25 z m -14.042969,0.00195 c -0.0134,0.083923 -0.04102,0.1616337 -0.04102,0.25 0,0.714 0.45925,1.2792969 1.03125,1.2792969 0.329,0 0.59025,-0.2059999 0.78125,-0.5 a 6.09,6.09 0 0 1 -0.07031,-0.4082031 c -0.183488,0.2418904 -0.41905,0.4082031 -0.710938,0.4082031 -0.500771,0 -0.894804,-0.4422873 -0.990234,-1.0292969 z m 6.958984,1.4375 c -3.88,0 -7.03125,1.5670004 -7.03125,3.4999994 0,0.08448 0.01355,0.167016 0.02539,0.25 0.258991,-1.815728 3.295437,-3.2499994 7.005859,-3.2499994 3.71033,0 6.746737,1.4343354 7.00586,3.2499994 0.01185,-0.08303 0.02539,-0.16547 0.02539,-0.25 0,-1.932999 -3.15125,-3.4999994 -7.031249,-3.4999994 z M 29.644568,11.4947 c 0,0 -0.18025,2.92875 4.96875,2.96875 5.054,0.04 5.09375,-2.939453 5.09375,-2.939453 0,0 -0.07538,0.178867 -0.269531,0.419922 -0.446366,0.871939 -1.636541,2.04476 -4.824219,2.019531 C 31.488243,13.93917 30.338883,12.854387 29.90824,12.002513 29.702034,11.716889 29.644881,11.496421 29.644568,11.4947 Z"
       id="path842"
       inkscape:connector-curvature="0" />
  </g>
</svg>

<?xml version="1.0" encoding="UTF-8" standalone="no"?>
<svg
   xmlns:dc="http://purl.org/dc/elements/1.1/"
   xmlns:cc="http://creativecommons.org/ns#"
   xmlns:rdf="http://www.w3.org/1999/02/22-rdf-syntax-ns#"
   xmlns:svg="http://www.w3.org/2000/svg"
   xmlns="http://www.w3.org/2000/svg"
   xmlns:sodipodi="http://sodipodi.sourceforge.net/DTD/sodipodi-0.dtd"
   xmlns:inkscape="http://www.inkscape.org/namespaces/inkscape"
   height="16"
   width="16"
   version="1.1"
   id="svg8"
   sodipodi:docname="face-monkey.svg"
   inkscape:version="0.92.4 (5da689c313, 2019-01-14)">
  <metadata
     id="metadata14">
    <rdf:RDF>
      <cc:Work
         rdf:about="">
        <dc:format>image/svg+xml</dc:format>
        <dc:type
           rdf:resource="http://purl.org/dc/dcmitype/StillImage" />
      </cc:Work>
    </rdf:RDF>
  </metadata>
  <defs
     id="defs12" />
  <sodipodi:namedview
     pagecolor="#ffffff"
     bordercolor="#666666"
     borderopacity="1"
     objecttolerance="10"
     gridtolerance="10"
     guidetolerance="10"
     inkscape:pageopacity="0"
     inkscape:pageshadow="2"
     inkscape:window-width="1920"
     inkscape:window-height="1016"
     id="namedview10"
     showgrid="false"
     inkscape:zoom="14.75"
     inkscape:cx="-17.762712"
     inkscape:cy="8"
     inkscape:window-x="0"
     inkscape:window-y="27"
     inkscape:window-maximized="1"
     inkscape:current-layer="svg8" />
  <g
     id="g6"
     transform="scale(0.99996863,1)"
     style="fill:#474747">
    <path
       d="M 7.844,0.031 C 6.617,0.765 6.78,1.664 6.938,2.062 5.13,2.331 3.388,3.374 2.813,5.25 2.529,5.038 2.225,4.906 1.875,4.906 0.841,4.906 0,5.99 0,7.281 c 0,1.293 0.841,2.344 1.875,2.344 0.467,0 0.886,-0.212 1.219,-0.563 2.719,-1.273 7.092,-1.466 9.875,0.032 0.32,0.322 0.71,0.531 1.156,0.531 C 15.159,9.625 16,8.574 16,7.281 16,5.989 15.159,4.906 14.125,4.906 13.697,4.906 13.314,5.099 13,5.406 12.493,3.704 11.16,2.496 9.188,2.125 9.018,1.486 8.903,0.209 10.813,0.344 8.643,-0.449 8.093,1.969 8.093,1.969 7.828,1.851 7.128,1.33 7.843,0.031 Z M 6.469,5.063 c 0.38,0 0.719,0.646 0.719,1.468 0,0.823 -0.34,1.5 -0.72,1.5 -0.38,0 -0.655,-0.677 -0.655,-1.5 0,-0.822 0.276,-1.468 0.656,-1.468 z m 3,0 c 0.38,0 0.719,0.646 0.719,1.468 0,0.823 -0.34,1.5 -0.72,1.5 -0.38,0 -0.655,-0.677 -0.655,-1.5 0,-0.822 0.276,-1.468 0.656,-1.468 z M 2,5.968 c 0.256,0 0.474,0.15 0.656,0.343 a 6.09,6.09 0 0 0 0.125,1.75 C 2.59,8.355 2.329,8.561 2,8.561 1.428,8.561 0.969,7.995 0.969,7.281 0.969,6.566 1.429,5.968 2,5.968 Z m 12.031,0 c 0.572,0 1.063,0.597 1.063,1.312 0,0.715 -0.49,1.282 -1.063,1.282 -0.372,0 -0.659,-0.262 -0.843,-0.626 0.055,-0.48 0.036,-0.935 0,-1.375 0.187,-0.35 0.484,-0.593 0.843,-0.593 z"
       id="path2"
       style="fill:#9c2c07;fill-opacity:1"
       inkscape:connector-curvature="0" />
    <path
       d="m 7.969,8.969 c -3.88,0 -7.031,1.567 -7.031,3.5 0,1.933 3.15,3.5 7.03,3.5 3.88,0 7.032,-1.567 7.032,-3.5 0,-1.933 -3.151,-3.5 -7.031,-3.5 z M 3,11.03 c 0,0 0.367,2.031 4.969,2.031 4.386,0 5.094,-2 5.094,-2 0,0 -0.04,2.979 -5.094,2.939 C 2.82,13.96 3,11.031 3,11.031 Z"
       id="path4"
       style="fill:#eab305;fill-opacity:1"
       inkscape:connector-curvature="0" />
  </g>
  <g
     id="g833"
     transform="matrix(0.99996863,0,0,1,-26.643232,0.06779661)"
     style="fill:#474747">
    <path
       style="opacity:0.2;fill:#030100;fill-opacity:1"
       d="m 34.488318,-0.00529632 c -0.101223,0.0605525 -0.178629,0.1231437 -0.261719,0.1855469 -0.04913,0.2235185 -0.05185,0.4127417 -0.01758,0.5703125 0.03883,-0.2173802 0.118808,-0.4642863 0.279297,-0.7558594 z m 2.230469,0.1542969 c -0.313572,-0.0137654 -0.567657,0.0668249 -0.794922,0.1777343 -0.16758,0.2665444 -0.185509,0.5761679 -0.152344,0.86718762 0.09741,-0.51272742 0.502525,-0.97033552 1.685547,-0.88671882 -0.27125,-0.099125 -0.5156,-0.1484277 -0.738281,-0.1582031 z M 33.503943,1.2173599 c -0.02166,0.115553 -0.02907,0.2253728 -0.02344,0.328125 0.03414,-0.00564 0.06737,-0.016396 0.101562,-0.021484 -0.03179,-0.080079 -0.05731,-0.1915332 -0.07813,-0.3066407 z m -0.390625,3.3085938 c -0.38,0 -0.65625,0.64675 -0.65625,1.46875 0,0.089077 0.01523,0.1669705 0.02148,0.2519531 0.05129,-0.6949734 0.29567,-1.2207031 0.634765,-1.2207031 0.339099,0 0.631362,0.5257183 0.69336,1.2207031 0.0076,-0.084974 0.02539,-0.1628859 0.02539,-0.2519531 0,-0.822 -0.33875,-1.46875 -0.71875,-1.46875 z m 3,0 c -0.38,0 -0.65625,0.64675 -0.65625,1.46875 0,0.089077 0.01523,0.1669705 0.02148,0.2519531 0.05129,-0.6949734 0.29567,-1.2207031 0.634765,-1.2207031 0.339099,0 0.631362,0.5257183 0.69336,1.2207031 0.0076,-0.084974 0.02539,-0.1628859 0.02539,-0.2519531 0,-0.822 -0.33875,-1.46875 -0.71875,-1.46875 z m -7.46875,0.9042969 c -0.571,0 -1.03125,0.5994531 -1.03125,1.3144531 0,0.088235 0.02764,0.1651397 0.04102,0.2480469 0.09532,-0.5946577 0.490074,-1.0625 0.990234,-1.0625 0.25094,0 0.464723,0.1464777 0.644531,0.3339843 a 6.09,6.09 0 0 1 0.01172,-0.4902343 c -0.182,-0.1929999 -0.40025,-0.34375 -0.65625,-0.34375 z m 12.03125,0 c -0.359,0 -0.65675,0.2437501 -0.84375,0.59375 0.01236,0.1511183 0.01739,0.3078284 0.02344,0.4628906 0.187922,-0.3287449 0.474952,-0.5566406 0.820312,-0.5566406 0.501351,0 0.920753,0.4676705 1.021485,1.0625 0.01438,-0.083568 0.04102,-0.1610199 0.04102,-0.25 0,-0.7149999 -0.4905,-1.3125 -1.0625,-1.3125 z M 29.294959,6.4966568 a 6.09,6.09 0 0 0 0.06055,1.1191407 c 0.02333,-0.030755 0.04877,-0.058633 0.07031,-0.091797 a 6.09,6.09 0 0 1 -0.13086,-1.0273437 z m 10.558594,0.4550781 c -0.0043,0.1483151 -0.0039,0.2941899 -0.02148,0.4472657 0.0068,0.013425 0.01637,0.023972 0.02344,0.037109 0.0044,-0.1638005 0.0049,-0.3255323 -0.002,-0.484375 z m -13.1875,0.042969 c -0.0072,0.083314 -0.02149,0.1646216 -0.02149,0.25 0,1.293 0.841,2.34375 1.875,2.34375 0.467,0 0.88575,-0.213453 1.21875,-0.5644531 2.719,-1.2729999 7.092,-1.4647967 9.875,0.033203 0.32,0.322 0.71025,0.53125 1.15625,0.53125 1.034,0 1.875,-1.05075 1.875,-2.34375 0,-0.085419 -0.01237,-0.1666608 -0.01953,-0.25 -0.101206,1.1743003 -0.88983,2.09375 -1.855469,2.09375 -0.446,0 -0.83625,-0.20925 -1.15625,-0.53125 -0.889633,-0.4788613 -1.94802,-0.7684842 -3.05664,-0.921875 -0.125369,0.213562 -0.277601,0.359375 -0.44336,0.359375 -0.192724,0 -0.357761,-0.176072 -0.474609,-0.4550781 -0.676269,-0.042492 -1.357986,-0.035069 -2.03125,0.023437 -0.131567,0.2646089 -0.307143,0.4316406 -0.494141,0.4316406 -0.154357,0 -0.28402,-0.1324909 -0.392578,-0.3203125 -1.088689,0.1670249 -2.122138,0.446836 -2.982422,0.8496094 -0.333,0.3510001 -0.75175,0.5644531 -1.21875,0.5644531 -0.965618,0 -1.752282,-0.9194856 -1.853515,-2.09375 z m 2.978515,3.5000001 c 0,0 -0.01588,0.455245 0.261719,1.005859 0.432457,0.600771 1.587988,1.523437 4.707031,1.523437 3.106665,0 4.352755,-0.994712 4.824219,-1.580078 0.261339,-0.510503 0.269531,-0.919921 0.269531,-0.919921 0,0 -0.70775,1.999999 -5.09375,1.999999 -4.595936,0 -4.967778,-2.023956 -4.96875,-2.029296 z m -2.037109,1.687499 c -0.01184,0.08299 -0.02539,0.165517 -0.02539,0.25 0,1.933 3.15125,3.5 7.03125,3.5 3.88,0 7.03125,-1.567 7.03125,-3.5 0,-0.08453 -0.01354,-0.166971 -0.02539,-0.25 -0.259123,1.815665 -3.29553,3.25 -7.00586,3.25 -3.710422,0 -6.746868,-1.434271 -7.00586,-3.25 z"
       id="path838"
       inkscape:connector-curvature="0" />
    <path
       style="opacity:0.3;fill:#ffffff;fill-opacity:1"
       d="m 34.488318,-0.00529632 c -0.980124,0.586317 -1.067017,1.26566732 -0.984375,1.72265622 0.06135,-0.3273305 0.263293,-0.6921129 0.722656,-1.03710932 0.04431,-0.201588 0.117666,-0.4238329 0.261719,-0.6855469 z m 2.230469,0.1542969 C 35.160022,0.08057278 34.738318,1.9322037 34.738318,1.9322037 34.585907,1.8643378 34.297261,1.6562385 34.209021,1.2505631 c -0.134157,0.7510795 0.323779,1.0901268 0.529297,1.1816406 0,0 0.283045,-1.1621761 1.183594,-1.60351562 0.2116,-0.3395903 0.650616,-0.5840043 1.535156,-0.5214844 -0.27125,-0.099125 -0.5156,-0.1484277 -0.738281,-0.1582031 z M 35.771521,1.6958756 c -0.05985,0.3150758 -0.0042,0.649364 0.06055,0.8925781 1.972,0.371 3.3055,1.57925 3.8125,3.28125 0.314,-0.307 0.697,-0.5 1.125,-0.5 0.965639,0 1.754263,0.947795 1.855469,2.125 0.0072,-0.083134 0.01953,-0.164515 0.01953,-0.25 0,-1.292 -0.841,-2.375 -1.875,-2.375 -0.428,0 -0.811,0.193 -1.125,0.5 -0.507,-1.702 -1.8405,-2.91025 -3.8125,-3.28125 C 35.8026,1.9776893 35.78743,1.8343151 35.771521,1.6958756 Z m -2.291015,0.3496093 c -1.770946,0.2927246 -3.45932,1.3274722 -4.023438,3.1679688 -0.284,-0.212 -0.5875,-0.34375 -0.9375,-0.34375 -1.034,0 -1.875,1.084 -1.875,2.375 0,0.085511 0.01432,0.1668422 0.02149,0.25 0.101233,-1.1764709 0.887897,-2.125 1.853515,-2.125 0.35,0 0.6535,0.13175 0.9375,0.34375 0.575,-1.8760001 2.317,-2.920453 4.125,-3.1894531 -0.04747,-0.1195655 -0.09105,-0.286792 -0.101562,-0.4785157 z m -1.001953,4.7011719 c -0.0062,0.083834 -0.02148,0.1595635 -0.02148,0.2480469 0,0.4883668 0.105169,0.9050917 0.263672,1.1796875 0.293372,-0.045009 0.586233,-0.085216 0.886719,-0.1113281 0.135776,-0.2731018 0.224609,-0.6503843 0.224609,-1.0683594 0,-0.088475 -0.01791,-0.16422 -0.02539,-0.2480469 -0.06228,0.7002057 -0.354484,1.2480469 -0.69336,1.2480469 -0.338871,0 -0.58324,-0.5478542 -0.634765,-1.2480469 z m 3,0 c -0.0062,0.083834 -0.02148,0.1595635 -0.02148,0.2480469 0,0.4055992 0.0681,0.7738044 0.181641,1.0449219 0.31034,0.0195 0.613944,0.055584 0.917969,0.097656 0.162396,-0.2760158 0.27539,-0.6779607 0.27539,-1.1425781 0,-0.088475 -0.01791,-0.16422 -0.02539,-0.2480469 -0.06228,0.7002057 -0.354484,1.2480469 -0.69336,1.2480469 -0.338871,0 -0.58324,-0.5478542 -0.634765,-1.2480469 z m -6.189454,0.017578 a 6.09,6.09 0 0 0 0.0059,0.2324219 6.09,6.09 0 0 1 0.0059,-0.2226562 c -0.0036,-0.00381 -0.0081,-0.00598 -0.01172,-0.00977 z m 10.566407,0.2226564 c -0.0074,0.012983 -0.01633,0.023812 -0.02344,0.037109 0.01143,0.139638 0.01531,0.2847552 0.02148,0.4277343 0.0046,-0.1569882 0.0079,-0.3124425 0.002,-0.4648437 z m 1.841797,0.5058594 c -0.101167,0.5879429 -0.519793,1.03125 -1.021485,1.03125 -0.358279,0 -0.635753,-0.2448404 -0.820312,-0.5878907 -0.0041,0.1533557 -0.0053,0.3044467 -0.02344,0.4628907 0.184,0.3640001 0.47175,0.625 0.84375,0.625 0.573,0 1.0625,-0.56625 1.0625,-1.28125 0,-0.088312 -0.02682,-0.1661777 -0.04102,-0.25 z m -14.042969,0.00195 c -0.0134,0.083923 -0.04102,0.1616337 -0.04102,0.25 0,0.714 0.45925,1.2792969 1.03125,1.2792969 0.329,0 0.59025,-0.2059999 0.78125,-0.5 a 6.09,6.09 0 0 1 -0.07031,-0.4082031 c -0.183488,0.2418904 -0.41905,0.4082031 -0.710938,0.4082031 -0.500771,0 -0.894804,-0.4422873 -0.990234,-1.0292969 z m 6.958984,1.4375 c -3.88,0 -7.03125,1.5670004 -7.03125,3.4999994 0,0.08448 0.01355,0.167016 0.02539,0.25 0.258991,-1.815728 3.295437,-3.2499994 7.005859,-3.2499994 3.71033,0 6.746737,1.4343354 7.00586,3.2499994 0.01185,-0.08303 0.02539,-0.16547 0.02539,-0.25 0,-1.932999 -3.15125,-3.4999994 -7.031249,-3.4999994 z M 29.644568,11.4947 c 0,0 -0.18025,2.92875 4.96875,2.96875 5.054,0.04 5.09375,-2.939453 5.09375,-2.939453 0,0 -0.07538,0.178867 -0.269531,0.419922 -0.446366,0.871939 -1.636541,2.04476 -4.824219,2.019531 C 31.488243,13.93917 30.338883,12.854387 29.90824,12.002513 29.702034,11.716889 29.644881,11.496421 29.644568,11.4947 Z"
       id="path842"
       inkscape:connector-curvature="0" />
  </g>
</svg>
